X: 878
T: Alex MacEachern
R: strathspey
M: 4/4
K: Amixolydian
B|:"A"A<Ae>A {A}c>BA>f|e<A"D"f>d "Em"e2 e<a|"A"A<Ae>A {A}c>BA>=c|"G"B<GB<g [d2D2] d>B:|
"A"A<a{b}a>f {ef}e>dc<A|A<a"D"f>d "Em"e2 e<a|"A"A<a{a}a>f {ef}e>dc<A|"G"B<GB<g [d2D2] d>B|
"A"A<a{b}a>f {ef}e>dc<A|A<a"D"f>d "Em"e2 (3efg|"A"(3agf "G"{gf}g>e "D"(3fed "Em"e<g|"G"B<GB<g [d2D2] d||

